X:521
T:Old Monaghan Twig, The
R:reel
D:Cran: Music from the Edge of the World
Z:id:hn-reel-521
M:C|
K:Amix
cAAB cAGB | Adde f2ed | cAAB cdeg |1 fage d2ed :|2 fage d2cd ||
|: eaaf gfed | cdef g2fg |1 ea~a2 efed | eage d2cd :|2 eaag ~a3g | eage d2ed ||
P:variations
|: cABd cAG2 | Add2 efed | cABd cAG2 |1 fage d2ed :|2 fage d2 (3Bcd ||
ea~a2 edcA | (3Bcd ef g2~g2 | ea~a2 edcA | efge d2cd |
ea~a2 edcA | (3Bcd ef g2fg | a2~a2 ea~a2 | efge d2ed ||

